frontend/src/assets/icons/left-arrow-head.svg

<svg width="current" height="current" viewBox="0 0 14 25" fill="none" xmlns="http://www.w3.org/2000/svg">
<path d="M11.7465 0.985369C11.4142 0.986215 11.1221 1.12506 10.8835 1.3604L0.383086 12.0891C0.131205 12.3521 -0.00086831 12.6701 1.04949e-05 13.0153C0.000924548 13.3744 0.13465 13.7054 0.387797 13.9395L10.9427 24.6009C11.1693 24.8488 11.4753 24.9861 11.8076 24.9853C12.4988 24.9835 13.0291 24.4298 13.0273 23.7118C13.0264 23.3804 12.8794 23.0493 12.6662 22.8151L2.97752 13.0077L12.6161 3.15118C12.8281 2.91591 12.9735 2.59791 12.9727 2.25271C12.9708 1.53461 12.4377 0.983609 11.7465 0.985369Z" fill="black"/>
</svg>

<svg width="current" height="current" viewBox="0 0 14 25" fill="none" xmlns="http://www.w3.org/2000/svg"><path d="M11.746.985c-.332.001-.624.14-.863.375L.383 12.09a1.313 1.313 0 0 0-.383.925c0 .36.135.69.388.925L10.943 24.6c.226.249.532.386.865.385.69-.002 1.221-.555 1.22-1.273a1.38 1.38 0 0 0-.362-.897l-9.688-9.807 9.638-9.857c.212-.235.357-.553.357-.898-.002-.718-.535-1.27-1.227-1.268z" fill="#000"/></svg>
